packages/swarm-icons/src/icons/line/New Window.svg

<svg xmlns="http://www.w3.org/2000/svg" width="24" height="24" viewBox="0 0 24 24">
  <path fill="#757575" d="M20.5,4.20710678 L12.8535534,11.8535534 C12.6582912,12.0488155 12.3417088,12.0488155 12.1464466,11.8535534 C11.9511845,11.6582912 11.9511845,11.3417088 12.1464466,11.1464466 L19.7928932,3.5 L13,3.5 C12.7238576,3.5 12.5,3.27614237 12.5,3 C12.5,2.72385763 12.7238576,2.5 13,2.5 L21,2.5 C21.2761424,2.5 21.5,2.72385763 21.5,3 L21.5,11 C21.5,11.2761424 21.2761424,11.5 21,11.5 C20.7238576,11.5 20.5,11.2761424 20.5,11 L20.5,4.20710678 Z M17.5,13 C17.5,12.7238576 17.7238576,12.5 18,12.5 C18.2761424,12.5 18.5,12.7238576 18.5,13 L18.5,19 C18.5,20.3807119 17.3807119,21.5 16,21.5 L5,21.5 C3.61928813,21.5 2.5,20.3807119 2.5,19 L2.5,8 C2.5,6.61928813 3.61928813,5.5 5,5.5 L11,5.5 C11.2761424,5.5 11.5,5.72385763 11.5,6 C11.5,6.27614237 11.2761424,6.5 11,6.5 L5,6.5 C4.17157288,6.5 3.5,7.17157288 3.5,8 L3.5,19 C3.5,19.8284271 4.17157288,20.5 5,20.5 L16,20.5 C16.8284271,20.5 17.5,19.8284271 17.5,19 L17.5,13 Z"/>
</svg>

<svg xmlns="http://www.w3.org/2000/svg" width="24" height="24"><path fill="#757575" d="M20.5 4.207l-7.646 7.647a.5.5 0 01-.708-.708L19.793 3.5H13a.5.5 0 110-1h8a.5.5 0 01.5.5v8a.5.5 0 11-1 0V4.207zM17.5 13a.5.5 0 111 0v6a2.5 2.5 0 01-2.5 2.5H5A2.5 2.5 0 012.5 19V8A2.5 2.5 0 015 5.5h6a.5.5 0 110 1H5A1.5 1.5 0 003.5 8v11A1.5 1.5 0 005 20.5h11a1.5 1.5 0 001.5-1.5v-6z"/></svg>
